X: 2135
Q: "Reel."
M: C
L: 1/8
K: G
uB |\
vG2(GD) B,DGF | EAAG FGAB |\
c |\
(B/c/d) (dg) Bdgd |
(^c/d/e) (ea) ceae |\
[1 (B/c/d) (dg) Bdgd | egdg BGG :|\
[2 dgfa gdBG | EGFA BGG |]


